X: 132
T: Slängpolska efter Bör-Johan
O: Hälsingland, Enånger
R: Slängpolska
Z: Håkan Lidén, 2008-09-28
M: 3/4
L: 1/8
K: G
D | G>G B<d c>B | A>D F<A d2 | F>G A<c B>A | G2 B<d g>D | G>G B<d c>B | 
A>D F<A d2 | F>G A<c B>A | G2 G3 :: c>c (3ece g>e | c>c (3ece g2 | 
G>G (3BGB d>B | G>G (3BGB d2 | D>F A<d f>e | d>D F<A d2 | F>G A<c B>A | G2 G3 :|

